X:015
T:Minuet TS.015
M:3/4
L:1/8
Q:3/4=40
S:Thomas Sands’ MS,1810,Lincolnshire
R:minuet
C:Prefixed as ‘No.3′ in MS
O:England;Lincolnshire
Z:vmp.Ruairidh Greig, 2011
K:G
D2|G2B2d2|g2(d/e/d/c/) B/c/B/A/|G2(D/E/D/C/) B,/C/B,/A,/|
A,2B,2d2|ecGcec|dBGBdB|c>d c2[B2D2]|[B2D4]A2:|
“_f”DF|A2A2A2|A4(G/F/G/A/)|B2B2B2|B4″_p”d2|
d2B2g2|d2B2g2|d2edcB|BAGFED|
F2B2d2|g2(d/e/d/c/) (B/c/B/A/)|G2D/E/D/C/ B,/C/B,/A,/|
A,2G,2″_p”d2|ecGceg|dBGBdg|f/e/d/c/B2A2|{A}G4|]

